X:36
T:Oef O'Craile O'Keefe
Z:id:hn-slide-27
M:6/8
K:D
F2D D2G|F2E D2A|AFG ABc|d2G GBG|F2A AFD|D3


*****************************


19500 2 0.573417 

<staresth! stait of Alle
R:sothus Cllogh Slig in Chilat, The
T:Rounsiy O'Kegefre's
R:singel jin
Z:id:hn-s


*****************************


19600 2 0.8765558 

<starthon:hm>ast aes the couber
Z:id:hn-slide-44
M:6/8
L:1/8
K:Ad
E2D FGE|A2F A2e|
c2c d2B|g2g fgf|e2f gf


*****************************


19700 2 0.8357505 

<starth
